X: 7
T: Saint Patrick's Day
R: jig
M: 6/8
L: 1/8
K: Gmaj
D|:"G"G>AG GAB|d>ed dcB|"Am"A>Bc BAG|"Em"EFE E2 D|
|"G"G>AG GAB|d>ed dcB|"Am"A>Bc BAG|1 "D"E2 F"G"G2 D:|2 "D"E2 F"G"G2 B||
|:"G"def gag|"D"fed "Em"edB|"G"def gag|"D"fed "C"e2 g|
|"G"G>AG GBc|dge dBG|"Am"A>Bc BAG|1 "D"E2 F"G"G2 B:|2 "D"E2 F"G"G3||


Tune 385	Setting 24558

